X:42
T:Sir You are a Comical Fellow. JJo.042
T:Comical Fellow,The,aka. JJo.042
A:N Shropshire
Z:Neil Brookes 2006
M:6/8
L:1/8
Q:3/8=100
K:C
G|c2ed2G|A2cB2E|FEF DGF|EC2 zzG|!
c3-c2c|_BAG AFA|d3-d2d|c=BA BGc|!
ede cde|fef def|gfe gfe|ed zzzg|!
g3zzg|g3zzg|gec AdB|cczz|]

